X:191
T: IHR LUSTIGEN SOLDATEN
N: E1332
O: Europa, Mitteleuropa, Deutschland, Bayern, Franken
R: Staende -, Soldaten -, Kriegs - Lied
M: 3/4
L: 1/8
K: G
D2 | GGG2A2 | ABB2
BB | A3GAB | G4
D2 | GGG2A2 | ABB2
BB | A3GAB | G4
Bc | d2d2e2 | c2c2
AB | c2c2d2 | B2B2
D2 | GGG2A2 | B4
BB | A3GAB | G4
D2 | GGG2A2 | B4
BB | A3GAB | G4

